X: 10115
T: WEST COAST KITTY
C: Bob McQuillen 24 May 93
B: Bob's Note Book 10 #115
%R: reel
Z: 2020 John Chambers <jc:trillian.mit.edu>
M: C
L: 1/8
K: G
GA \
| B2BG AGEG | DGBG AGBd | g2dc BGEG | cABc BGEG |\
| DEGB AGEG | B2BG AGBd | gedc BGAG | DEGF G2  :|
|: Bd |\
| e2eg edBd | gabg ageg | d2de gedB | GABG AGED |\
| G2BG AGBd | e2ge dega | bgeg dBge | dBAB G2  :|
%%begintext align
%% Frank and Dina
%% Blade's "KITTY" kept us cute company on the
%% piano bench beside me when Warren Argo and Frank
%% and I were rehearsing for our set at the Folklife Festival.
%%endtext

%%sep 1 1 500

%%sep 1 1 500

